svgs/regular/id-badge.svg

<svg xmlns="http://www.w3.org/2000/svg" viewBox="0 0 384 512"><!-- Font Awesome Pro 6.0.0-alpha2 by @fontawesome - https://fontawesome.com License - https://fontawesome.com/license (Commercial License) --><path d="M320 0H64C28.654 0 0 28.652 0 64V448C0 483.346 28.654 512 64 512H320C355.346 512 384 483.346 384 448V64C384 28.652 355.346 0 320 0ZM336 448C336 456.836 328.836 464 320 464H64C55.164 464 48 456.836 48 448V64C48 55.162 55.164 48 64 48H128V64C128 81.672 142.326 96 160 96H224C241.674 96 256 81.672 256 64V48H320C328.836 48 336 55.162 336 64V448ZM192 288C227.348 288 256 259.346 256 224S227.348 160 192 160C156.656 160 128 188.654 128 224S156.656 288 192 288ZM224 320H160C115.82 320 80 355.816 80 400C80 408.836 87.164 416 96 416H288C296.836 416 304 408.836 304 400C304 355.816 268.184 320 224 320Z"/></svg>

<svg xmlns="http://www.w3.org/2000/svg" viewBox="0 0 384 512"><!--! Font Awesome Pro 6.0.0-alpha3 by @fontawesome - https://fontawesome.com License - https://fontawesome.com/license (Commercial License) --><path d="M320 0H64C28.65 0 0 28.65 0 64v384c0 35.35 28.65 64 64 64h256c35.35 0 64-28.65 64-64V64C384 28.65 355.3 0 320 0zM336 448c0 8.836-7.164 16-16 16H64c-8.836 0-16-7.164-16-16V64c0-8.838 7.164-16 16-16h64V64c0 17.67 14.33 32 32 32h64c17.67 0 32-14.33 32-32V48h64c8.836 0 16 7.162 16 16V448zM192 288c35.35 0 64-28.65 64-64s-28.65-64-64-64C156.7 160 128 188.7 128 224S156.7 288 192 288zM224 320H160c-44.18 0-80 35.82-80 80C80 408.8 87.16 416 96 416h192c8.836 0 16-7.164 16-16C304 355.8 268.2 320 224 320z"/></svg>
